X: 254
T: Yew Piney Mountain
B: tunes
M:4/4
R: reel
Q: 1/4=100
K:Adorian
V:1 
eg|:a2ag efge|dged cdeg|a2ag edcA|cdeg a4|
 abag efge|dged cBAc|e6 e3 d|c2 A2EG|
 ABAG EDCA|1 CDEG A2 eg:|2 CDEG A2 AG||
 cB|:ABcd e4|e4 edc2|A4 e2e2|dedc A2EG|
 A2Ac e4|edc2 A2EG|A2Ac e4|edc2 A2EG|
 ABAG EDCA|1 CDEG A2 cB:|2 CDEG A4||
% abcbook-tune_id 629fde55634a70e8a75197f8
% abcbook-tune_composer_id 
% abcbook-link-0 https://www.youtube.com/watch?v=1__AcaubEdg
% abcbook-link-title-0 Yew Piney Mountain
% abcbook-boost 7
% abcbook-difficulty 0
% abcbook-tags old time tunes,steve ryan
% abcbook-tablature 
% abcbook-transpose 
% abcbook-tuning 
% abcbook-lastupdated 1675501458454
% abcbook-soundfonts 
% abcbook-repeats 1


